Yaru++/devices/scalable/computer.svg

<svg height="256" viewBox="0 0 67.73 67.73" width="256" xmlns="http://www.w3.org/2000/svg" xmlns:xlink="http://www.w3.org/1999/xlink"><filter id="a" color-interpolation-filters="sRGB" height="1.024" width="1.024" x="-.012" y="-.012"><feGaussianBlur stdDeviation="2.1176685"/></filter><filter id="b" color-interpolation-filters="sRGB" height="1.096" width="1.096" x="-.048" y="-.048"><feGaussianBlur stdDeviation="8.470674"/></filter><linearGradient id="c" gradientTransform="matrix(0 -.85492972 -.85673145 0 909.06269 298.01409)" gradientUnits="userSpaceOnUse" x1="1120.9535" x2="1116.2264" y1="-134.18204" y2="197.20247"><stop offset="0" stop-color="#999"/><stop offset=".61328125" stop-color="#b7b7b7"/><stop offset="1" stop-color="#dbdbdb"/></linearGradient><linearGradient id="d" gradientTransform="matrix(-.00000004 -1.7041049 2.861305 0 814.6618 93.332797)" gradientUnits="userSpaceOnUse" x1="60.703094" x2="107.98319" y1="261.04999" y2="261.04999"><stop offset="0" stop-color="#d78ec1"/><stop offset=".26238" stop-color="#c564be"/><stop offset=".66094" stop-color="#9d3ea4"/><stop offset="1" stop-color="#5e2c73"/></linearGradient><linearGradient id="e" gradientUnits="userSpaceOnUse" x1="60.857891" x2="108.137987" y1="261.282185" y2="261.282185"><stop offset="0" stop-color="#62237c"/><stop offset="1" stop-color="#c43ac4"/></linearGradient><linearGradient id="f" gradientUnits="userSpaceOnUse" x1="1132" x2="1132" y1="288" y2="264"><stop offset="0" stop-color="#c0bfbc"/><stop offset="1" stop-color="#acaba7"/></linearGradient><linearGradient id="g" gradientUnits="userSpaceOnUse" x1="1124" x2="1124" y1="296" y2="312"><stop offset="0" stop-color="#f6f5f4"/><stop offset="1" stop-color="#d7d3ce"/></linearGradient><g enable-background="new" stroke-width="1.888756" transform="matrix(.13992715 0 0 .14022605 -122.38678 19.17068)"><g fill="#0c0c0b" stroke-width="1.922961"><path d="m936.79856-107.42872c-18.04904 0-32.57858 14.531001-32.57858 32.580001v293.216999c0 18.049 14.52954 32.576 32.57858 32.576h134.38994l-4.0718 48.871h-32.5786c-8.1449 0-16.2912 8.145-16.2912 16.29h195.4791c0-8.145-8.1452-16.29-16.0355-16.29h-32.8343l-4.0718-48.871h134.3899c18.0491 0 32.5786-14.527 32.5786-32.576v-293.216999c0-18.049-14.5295-32.580001-32.5786-32.580001z" filter="url(#b)" opacity=".1"/><path d="m936.79856-107.42872c-18.04904 0-32.57858 14.531001-32.57858 32.580001v293.216999c0 18.049 14.52954 32.576 32.57858 32.576h134.38994l-4.0718 48.871h-32.5786c-8.1449 0-16.2912 8.145-16.2912 16.29h195.4791c0-8.145-8.1452-16.29-16.0355-16.29h-32.8343l-4.0718-48.871h134.3899c18.0491 0 32.5786-14.527 32.5786-32.576v-293.216999c0-18.049-14.5295-32.580001-32.5786-32.580001z" filter="url(#a)" opacity=".1"/><path d="m936.79856-107.42872c-18.04904 0-32.57858 14.531001-32.57858 32.580001v293.216999c0 18.049 14.52954 32.576 32.57858 32.576h134.38994l-4.0718 48.871h-32.5786c-8.1449 0-16.2912 8.145-16.2912 16.29h195.4791c0-8.145-8.1452-16.29-16.0355-16.29h-32.8343l-4.0718-48.871h134.3899c18.0491 0 32.5786-14.527 32.5786-32.576v-293.216999c0-18.049-14.5295-32.580001-32.5786-32.580001z" opacity=".1"/></g><path d="m1084 104-16 192h48 48l-16-192h-32z" fill="url(#f)"/><path d="m1036 296h160.25c7.75 0 15.75 8 15.75 16h-192c0-8 8-16 16-16z" fill="url(#g)"/><rect fill="url(#c)" height="352" rx="32" width="416" x="908" y="-104"/><rect fill="#666" height="288" rx="15" width="384" x="924" y="-88"/><path d="m34.564453 17.337891c-9.376065 0-16.923828 7.564844-16.923828 16.960937v2c0-9.396093 7.547763-16.960937 16.923828-16.960937h186.167967c9.37607 0 16.92383 7.564844 16.92383 16.960937v-2c0-9.396093-7.54776-16.960937-16.92383-16.960937z" fill="#fff" opacity=".3" stroke-width="1" transform="matrix(1.8907718 0 0 1.8867415 874.64641 -136.71269)"/><path d="m1292.0011 248.05069c17.728 0 31.9991-14.27291 31.9991-32.00084v-3.77354c0 17.72803-14.2711 32.00094-31.9991 32.00094h-352.00117c-17.72801 0-31.9991-14.27291-31.9991-32.00094v3.77354c0 17.72793 14.27109 32.00084 31.9991 32.00084z" opacity=".2" stroke-width="1.888756"/><g fill="url(#d)" transform="matrix(7.1465759 0 0 7.1313426 512.68221 -1805.9804)"><rect fill="url(#e)" height="33.654251" rx="1.322852" width="47.015526" x="60.990173" y="244.49251"/><g fill="#fff" transform="matrix(.73019136 0 0 .72354265 51.148223 72.403362)"><path d="m28.321032 237.81856-14.815938 33.865v10.58282c0 1.17257.943987 2.11656 2.116563 2.11656h8.466249l19.049063-46.56438z" opacity=".1"/><path d="m15.48916 237.79182c-1.066686-.002-1.984066.67656-1.984066 2.14331v31.74843l14.815938-33.865z" opacity=".2"/></g></g><g fill="url(#d)" transform="matrix(7.1465759 0 0 7.1313426 512.68221 -1805.9804)"><path d="m44.087891 39.375c-2.77 0-5 2.23-5 5v2c0-2.77 2.23-5 5-5h167.705079c2.77 0 5 2.23 5 5v-2c0-2.77-2.23-5-5-5z" fill="#000" opacity=".2" transform="matrix(.26457031 0 0 .26457031 50.64862 234.07482)"/><path d="m106.68274 278.13563c.73286 0 1.32286-.58999 1.32286-1.32285v-.52914c0 .73286-.59 1.32285-1.32286 1.32285h-44.369776c-.73286 0-1.32285-.58999-1.32285-1.32285v.52914c0 .73286.58999 1.32285 1.32285 1.32285z" fill="#fff" opacity=".3"/></g></g></svg>

<?xml version="1.0" encoding="UTF-8" standalone="no"?>
<svg
   xmlns:dc="http://purl.org/dc/elements/1.1/"
   xmlns:cc="http://creativecommons.org/ns#"
   xmlns:rdf="http://www.w3.org/1999/02/22-rdf-syntax-ns#"
   xmlns:svg="http://www.w3.org/2000/svg"
   xmlns="http://www.w3.org/2000/svg"
   xmlns:xlink="http://www.w3.org/1999/xlink"
   xmlns:sodipodi="http://sodipodi.sourceforge.net/DTD/sodipodi-0.dtd"
   xmlns:inkscape="http://www.inkscape.org/namespaces/inkscape"
   height="256"
   viewBox="0 0 67.73 67.73"
   width="256"
   version="1.1"
   id="svg59"
   sodipodi:docname="computer.svg"
   inkscape:version="0.92.4 (5da689c313, 2019-01-14)">
  <metadata
     id="metadata65">
    <rdf:RDF>
      <cc:Work
         rdf:about="">
        <dc:format>image/svg+xml</dc:format>
        <dc:type
           rdf:resource="http://purl.org/dc/dcmitype/StillImage" />
        <dc:title />
      </cc:Work>
    </rdf:RDF>
  </metadata>
  <defs
     id="defs63">
    <radialGradient
       id="radialGradient2973"
       cx="26.617001"
       cy="-2.0645001"
       r="23"
       gradientTransform="matrix(-3.7259549e-8,-1.7041049,2.861305,0,814.6618,93.332797)"
       gradientUnits="userSpaceOnUse">
      <stop
         id="stop2749"
         style="stop-color:#d78ec1"
         offset="0" />
      <stop
         id="stop2751"
         style="stop-color:#c564be"
         offset=".26238" />
      <stop
         id="stop2753"
         style="stop-color:#9d3ea4"
         offset=".66094" />
      <stop
         id="stop2755"
         style="stop-color:#5e2c73"
         offset="1" />
    </radialGradient>
    <linearGradient
       id="linearGradient2975"
       x1="10.014"
       x2="10.014"
       y1="44.959999"
       y2="2.8764999"
       gradientTransform="matrix(1.9614867,0,0,1.4447534,743.07324,6.5755204)"
       gradientUnits="userSpaceOnUse">
      <stop
         id="stop2759"
         style="stop-color:#650d5c"
         offset="0" />
      <stop
         id="stop2761"
         style="stop-color:#5e2c59"
         offset="1" />
    </linearGradient>
    <filter
       inkscape:collect="always"
       style="color-interpolation-filters:sRGB"
       id="filter891"
       x="-0.012000022"
       width="1.024"
       y="-0.011999992"
       height="1.024">
      <feGaussianBlur
         inkscape:collect="always"
         stdDeviation="2.1176685"
         id="feGaussianBlur893" />
    </filter>
    <filter
       inkscape:collect="always"
       style="color-interpolation-filters:sRGB"
       id="filter917"
       x="-0.048000089"
       width="1.0960002"
       y="-0.047999966"
       height="1.0959999">
      <feGaussianBlur
         inkscape:collect="always"
         stdDeviation="8.470674"
         id="feGaussianBlur919" />
    </filter>
    <linearGradient
       id="b"
       gradientTransform="matrix(0,-0.85492972,-0.85673145,0,909.06269,298.01409)"
       gradientUnits="userSpaceOnUse"
       x1="529.65515"
       x2="-35.310345"
       y1="295.6377"
       y2="295.6377">
      <stop
         offset="0"
         stop-color="#999"
         id="stop7-3" />
      <stop
         offset=".61328125"
         stop-color="#b7b7b7"
         id="stop9" />
      <stop
         offset="1"
         stop-color="#dbdbdb"
         id="stop11" />
    </linearGradient>
    <linearGradient
       inkscape:collect="always"
       xlink:href="#b"
       id="linearGradient927"
       x1="1120.9535"
       y1="-134.18204"
       x2="1116.2264"
       y2="197.20247"
       gradientUnits="userSpaceOnUse" />
    <linearGradient
       inkscape:collect="always"
       xlink:href="#radialGradient2973"
       id="linearGradient1025"
       x1="60.703094"
       y1="261.04999"
       x2="107.98319"
       y2="261.04999"
       gradientUnits="userSpaceOnUse" />
    <linearGradient
       inkscape:collect="always"
       xlink:href="#linearGradient2527"
       id="linearGradient1027"
       gradientUnits="userSpaceOnUse"
       x1="60.703094"
       y1="261.04999"
       x2="107.98319"
       y2="261.04999"
       gradientTransform="translate(0.15479676,0.23219496)" />
    <linearGradient
       inkscape:collect="always"
       xlink:href="#radialGradient2973"
       id="linearGradient1055"
       gradientUnits="userSpaceOnUse"
       gradientTransform="translate(0.15479676,0.23219496)"
       x1="60.703094"
       y1="261.04999"
       x2="107.98319"
       y2="261.04999" />
    <linearGradient
       id="linearGradient3797-5">
      <stop
         style="stop-color:#f7f7f7;stop-opacity:1"
         offset="0"
         id="stop3801" />
      <stop
         style="stop-color:#e6e6e6;stop-opacity:1"
         offset="1"
         id="stop3799" />
    </linearGradient>
    <linearGradient
       id="linearGradient2527">
      <stop
         id="stop2523"
         offset="0"
         style="stop-color:#62237c;stop-opacity:1" />
      <stop
         id="stop2525"
         offset="1"
         style="stop-color:#c43ac4;stop-opacity:1" />
    </linearGradient>
    <linearGradient
       inkscape:collect="always"
       xlink:href="#radialGradient2973"
       id="linearGradient960"
       gradientUnits="userSpaceOnUse"
       x1="60.703094"
       y1="261.04999"
       x2="107.98319"
       y2="261.04999" />
  </defs>
  <sodipodi:namedview
     pagecolor="#ffffff"
     bordercolor="#666666"
     borderopacity="1"
     objecttolerance="10"
     gridtolerance="10"
     guidetolerance="10"
     inkscape:pageopacity="0"
     inkscape:pageshadow="2"
     inkscape:window-width="1920"
     inkscape:window-height="1016"
     id="namedview61"
     showgrid="false"
     inkscape:zoom="13.673182"
     inkscape:cx="80.350148"
     inkscape:cy="78.336456"
     inkscape:window-x="0"
     inkscape:window-y="27"
     inkscape:window-maximized="1"
     inkscape:current-layer="g989" />
  <filter
     id="filter1961"
     color-interpolation-filters="sRGB"
     height="1.024"
     width="1.024"
     x="-.012"
     y="-.012">
    <feGaussianBlur
       stdDeviation=".52"
       id="feGaussianBlur2" />
  </filter>
  <linearGradient
     id="linearGradient19130"
     gradientUnits="userSpaceOnUse"
     x1="1132"
     x2="1132"
     y1="288"
     y2="264">
    <stop
       offset="0"
       stop-color="#c0bfbc"
       id="stop5" />
    <stop
       offset="1"
       stop-color="#acaba7"
       id="stop7" />
  </linearGradient>
  <linearGradient
     id="linearGradient19138"
     gradientUnits="userSpaceOnUse"
     x1="1124"
     x2="1124"
     y1="296"
     y2="312">
    <stop
       offset="0"
       stop-color="#f6f5f4"
       id="stop10" />
    <stop
       offset="1"
       stop-color="#d7d3ce"
       id="stop12" />
  </linearGradient>
  <linearGradient
     id="linearGradient1076"
     gradientUnits="userSpaceOnUse"
     x1="908"
     x2="1324"
     y1="24"
     y2="24"
     gradientTransform="translate(-96.952138,48.626)">
    <stop
       offset="0"
       stop-color="#babdb6"
       id="stop15" />
    <stop
       offset=".04166667"
       stop-color="#f6f5f4"
       id="stop17" />
    <stop
       offset=".08333334"
       stop-color="#d5d3cf"
       id="stop19" />
    <stop
       offset=".91666669"
       stop-color="#deddda"
       id="stop21" />
    <stop
       offset=".95833331"
       stop-color="#f6f5f4"
       id="stop23" />
    <stop
       offset="1"
       stop-color="#babdb6"
       id="stop25" />
  </linearGradient>
  <radialGradient
     id="radialGradient1030"
     cx="63.999996"
     cy="194.19048"
     gradientTransform="matrix(-18.049586,2.44e-6,-1.16e-6,-5.0349652,39.1736,814.05)"
     gradientUnits="userSpaceOnUse"
     r="44"
     xlink:href="#linearGradient2975">
    <stop
       offset="0"
       stop-color="#fff"
       id="stop28" />
    <stop
       offset="1"
       stop-color="#fff"
       stop-opacity=".094118"
       id="stop30" />
  </radialGradient>
  <g
     enable-background="new"
     stroke-width="1.888756"
     transform="matrix(.13992715 0 0 .14022605 -122.38678 19.17068)"
     id="g47">
    <path
       style="fill:#0c0c0b;fill-opacity:1;stroke-width:1.92296052;opacity:0.1;filter:url(#filter917)"
       d="m 936.79856,-107.42872 c -18.04904,0 -32.57858,14.531001 -32.57858,32.580001 V 218.36828 c 0,18.049 14.52954,32.576 32.57858,32.576 h 134.38994 l -4.0718,48.871 h -32.5786 c -8.1449,0 -16.2912,8.145 -16.2912,16.29 h 195.4791 c 0,-8.145 -8.1452,-16.29 -16.0355,-16.29 h -32.8343 l -4.0718,-48.871 h 134.3899 c 18.0491,0 32.5786,-14.527 32.5786,-32.576 V -74.848719 c 0,-18.049 -14.5295,-32.580001 -32.5786,-32.580001 z"
       id="path895"
       inkscape:connector-curvature="0" />
    <path
       inkscape:connector-curvature="0"
       id="path885"
       d="m 936.79856,-107.42872 c -18.04904,0 -32.57858,14.531001 -32.57858,32.580001 V 218.36828 c 0,18.049 14.52954,32.576 32.57858,32.576 h 134.38994 l -4.0718,48.871 h -32.5786 c -8.1449,0 -16.2912,8.145 -16.2912,16.29 h 195.4791 c 0,-8.145 -8.1452,-16.29 -16.0355,-16.29 h -32.8343 l -4.0718,-48.871 h 134.3899 c 18.0491,0 32.5786,-14.527 32.5786,-32.576 V -74.848719 c 0,-18.049 -14.5295,-32.580001 -32.5786,-32.580001 z"
       style="fill:#0c0c0b;fill-opacity:1;stroke-width:1.92296052;opacity:0.1;filter:url(#filter891)" />
    <path
       style="fill:#0c0c0b;fill-opacity:1;stroke-width:1.92296052;opacity:0.1"
       d="m 936.79856,-107.42872 c -18.04904,0 -32.57858,14.531001 -32.57858,32.580001 V 218.36828 c 0,18.049 14.52954,32.576 32.57858,32.576 h 134.38994 l -4.0718,48.871 h -32.5786 c -8.1449,0 -16.2912,8.145 -16.2912,16.29 h 195.4791 c 0,-8.145 -8.1452,-16.29 -16.0355,-16.29 h -32.8343 l -4.0718,-48.871 h 134.3899 c 18.0491,0 32.5786,-14.527 32.5786,-32.576 V -74.848719 c 0,-18.049 -14.5295,-32.580001 -32.5786,-32.580001 z"
       id="path868"
       inkscape:connector-curvature="0" />
    <path
       d="m1084 104-16 192h48 48l-16-192h-32z"
       id="path35"
       fill="url(#linearGradient19130)" />
    <path
       d="m1036 296h160.25c7.75 0 15.75 8 15.75 16h-192c0-8 8-16 16-16z"
       fill="url(#linearGradient19138)"
       id="path37" />
    <rect
       fill="#f6f5f4"
       height="352"
       rx="32"
       width="416"
       x="908"
       y="-104"
       id="rect41"
       style="fill-opacity:1;fill:url(#linearGradient927)" />
    <rect
       fill="#241f31"
       height="288"
       rx="15"
       width="384"
       x="924"
       y="-88"
       id="rect43"
       style="fill:#666666;fill-opacity:1" />
    <path
       style="fill:#ffffff;stroke-width:1.00000024;fill-opacity:1;opacity:0.3"
       d="M 34.564453 17.337891 C 25.188388 17.337891 17.640625 24.902735 17.640625 34.298828 L 17.640625 36.298828 C 17.640625 26.902735 25.188388 19.337891 34.564453 19.337891 L 220.73242 19.337891 C 230.10849 19.337891 237.65625 26.902735 237.65625 36.298828 L 237.65625 34.298828 C 237.65625 24.902735 230.10849 17.337891 220.73242 17.337891 L 34.564453 17.337891 z "
       transform="matrix(1.8907718,0,0,1.8867415,874.64641,-136.71269)"
       id="rect861" />
    <path
       id="path866"
       d="m 1292.0011,248.05069 c 17.728,0 31.9991,-14.27291 31.9991,-32.00084 v -3.77354 c 0,17.72803 -14.2711,32.00094 -31.9991,32.00094 H 939.99993 c -17.72801,0 -31.9991,-14.27291 -31.9991,-32.00094 v 3.77354 c 0,17.72793 14.27109,32.00084 31.9991,32.00084 z"
       style="opacity:0.2;fill:#000000;fill-opacity:1;stroke-width:1.88875604"
       inkscape:connector-curvature="0" />
    <g
       id="g993"
       transform="matrix(7.1465759,0,0,7.1313426,512.68221,-1805.9804)"
       style="fill:url(#linearGradient1025);fill-opacity:1;stroke:none">
      <rect
         style="opacity:1;fill:url(#linearGradient1027);fill-opacity:1;stroke:none;stroke-width:0.2645703;stroke-linecap:round;stroke-miterlimit:4;stroke-dasharray:none;stroke-opacity:1"
         id="rect1017"
         width="47.015526"
         height="33.654251"
         x="60.990173"
         y="244.49251"
         rx="1.3228515"
         ry="1.3228515" />
      <g
         id="g989"
         style="fill:#ffffff;fill-opacity:1;stroke:none"
         transform="matrix(0.73019136,0,0,0.72354265,51.148223,72.403362)">
        <path
           id="path983"
           d="m 28.321032,237.81856 -14.815938,33.865 v 10.58282 c 0,1.17257 0.943987,2.11656 2.116563,2.11656 h 8.466249 l 19.049063,-46.56438 z"
           inkscape:connector-curvature="0"
           style="opacity:0.1;fill:#ffffff;fill-opacity:1;stroke:none" />
        <path
           id="path987"
           d="m 15.48916,237.79182 c -1.066686,-0.002 -1.984066,0.67656 -1.984066,2.14331 v 31.74843 l 14.815938,-33.865 z"
           inkscape:connector-curvature="0"
           style="opacity:0.2;fill:#ffffff;fill-opacity:1;stroke:none"
           sodipodi:nodetypes="ssccs" />
      </g>
      <g
         id="g958"
         transform="translate(-12.260713,229.94902)"
         style="fill:url(#linearGradient960);stroke:none" />
    </g>
    <g
       style="fill:url(#linearGradient1025);fill-opacity:1"
       transform="matrix(7.1465759,0,0,7.1313426,512.68221,-1805.9804)"
       id="g1043">
      <path
         style="opacity:0.2;fill:#000000;fill-opacity:1;stroke:none;stroke-width:0.99999994;stroke-linecap:round;stroke-miterlimit:4;stroke-dasharray:none;stroke-opacity:1"
         d="M 44.087891 39.375 C 41.317891 39.375 39.087891 41.605 39.087891 44.375 L 39.087891 46.375 C 39.087891 43.605 41.317891 41.375 44.087891 41.375 L 211.79297 41.375 C 214.56297 41.375 216.79297 43.605 216.79297 46.375 L 216.79297 44.375 C 216.79297 41.605 214.56297 39.375 211.79297 39.375 L 44.087891 39.375 z "
         transform="matrix(0.26457031,0,0,0.26457031,50.64862,234.07482)"
         id="rect1035" />
      <path
         id="path1062"
         d="m 106.68274,278.13563 c 0.73286,0 1.32286,-0.58999 1.32286,-1.32285 v -0.52914 c 0,0.73286 -0.59,1.32285 -1.32286,1.32285 H 62.312964 c -0.73286,0 -1.32285,-0.58999 -1.32285,-1.32285 v 0.52914 c 0,0.73286 0.58999,1.32285 1.32285,1.32285 z"
         style="opacity:0.3;fill:#ffffff;fill-opacity:1;stroke:none;stroke-width:0.2645703;stroke-linecap:round;stroke-miterlimit:4;stroke-dasharray:none;stroke-opacity:1"
         inkscape:connector-curvature="0" />
    </g>
  </g>
</svg>
